static/logos/mailchimp-glyph-color.svg

<svg width="50" height="50" viewBox="0 0 50 50" fill="none" xmlns="http://www.w3.org/2000/svg">
<path d="M35.4433 23.7793C35.746 23.7402 36.0488 23.7402 36.3515 23.7793C36.5175 23.4082 36.5468 22.7539 36.4003 22.0606C36.1855 21.0156 35.8827 20.3809 35.2773 20.4785C34.6718 20.5762 34.6425 21.3379 34.8671 22.3828C34.9745 22.959 35.1992 23.4668 35.4433 23.7793ZM30.1992 24.6094C30.6386 24.8047 30.9023 24.9316 31.0097 24.8145C31.1952 24.6289 30.6679 23.8965 29.8281 23.5352C28.832 23.125 27.6992 23.2617 26.83 23.8965C26.537 24.1113 26.2636 24.4043 26.3027 24.5899C26.3906 24.9512 27.2792 24.3262 28.5195 24.2481C29.1933 24.1992 29.7597 24.4141 30.1992 24.6094ZM29.3202 25.1074C28.4316 25.2441 27.8554 25.7422 28.0019 26.0938C28.0898 26.1231 28.1191 26.1719 28.5097 26.0156C29.0956 25.791 29.7206 25.7324 30.3456 25.8203C30.6288 25.8496 30.7656 25.8691 30.8339 25.7715C30.9609 25.5664 30.2675 25 29.3202 25.1074ZM34.6132 26.7871C34.9452 26.1133 33.5488 25.4199 33.2167 26.1035C32.8847 26.7773 34.2909 27.4609 34.6132 26.7871ZM36.1464 24.7852C35.3945 24.7754 35.3652 26.3281 36.1171 26.3477C36.8788 26.3477 36.9081 24.7949 36.1464 24.7852ZM14.7402 32.5C14.6132 32.5293 14.1542 32.6465 13.9101 32.2656C13.4023 31.4844 14.9941 30.2734 14.2031 28.7598C13.3144 27.0508 11.4784 27.4316 10.7753 28.2129C9.92571 29.1504 9.92571 30.5176 10.287 30.5664C10.707 30.625 10.6874 29.9316 11.0097 29.4238C11.3906 28.8379 12.162 28.6719 12.748 29.0527C12.748 29.0527 12.7577 29.0527 12.7577 29.0625C13.8906 29.8047 12.8945 30.8008 12.9824 31.8652C13.1191 33.4961 14.789 33.4668 15.0917 32.7441C15.1308 32.6758 15.121 32.5781 15.0722 32.5195C15.0722 32.627 15.1308 32.4121 14.7402 32.5ZM44.0761 30.8301C43.7441 29.6777 43.8222 29.9316 43.412 28.8184C43.6562 28.457 44.9062 26.4649 43.1093 24.5899C42.0937 23.5254 39.789 22.9688 39.0859 22.7734C38.9394 21.6602 39.5449 17.0313 36.9765 14.6484C39.0077 12.5391 40.2773 10.2148 40.2773 8.22266C40.2675 4.39454 35.5605 3.23243 29.7597 5.63477L28.5292 6.15235C28.5195 6.14258 26.3027 3.97461 26.2734 3.94532C19.6718 -1.8164 -1.01179 21.1621 5.59954 26.7481L7.04485 27.9688C6.65423 29.0137 6.51751 30.1367 6.64446 31.25C6.97649 34.5215 10.1699 37.168 13.2558 37.1582C18.9101 50.1856 39.4765 50.2051 44.7988 37.4512C44.9648 37.0117 45.6874 35.0391 45.6874 33.3008C45.6874 31.5625 44.7011 30.8301 44.0761 30.8301ZM13.1386 35.5469C10.9023 35.4883 8.49017 33.4766 8.25579 31.0938C7.65032 25.0977 15.5214 23.7305 16.4784 29.8828C16.9277 32.7832 16.0195 35.6055 13.1386 35.5469ZM11.332 24.3652C9.84759 24.6582 8.53899 25.4981 7.73821 26.6602C7.2597 26.2598 6.37103 25.4883 6.21478 25.1953C4.94524 22.7637 7.61126 18.0469 9.47649 15.3906C14.0859 8.8086 21.3027 3.82813 24.6523 4.72657C25.1992 4.88282 26.996 6.9629 26.996 6.9629C26.996 6.9629 23.6562 8.81837 20.5605 11.4063C16.371 14.6289 13.2167 19.2969 11.332 24.3652ZM34.7109 34.2676C34.7109 34.2676 31.2148 34.7852 27.9042 33.5742C28.5097 31.6016 30.5507 34.1699 37.3378 32.2266C38.832 31.7969 40.7949 30.957 42.3281 29.7461C42.6601 30.5078 42.8945 31.3086 43.0214 32.1191C43.3827 32.0508 44.4179 32.0703 44.1445 33.8867C43.8222 35.8301 42.9921 37.4121 41.6054 38.8672C40.7363 39.8047 39.7011 40.5859 38.5585 41.1524C37.9238 41.4844 37.2499 41.7676 36.5663 41.9922C31.332 43.7012 25.9706 41.8262 24.2324 37.7832C24.0956 37.4707 23.9784 37.1582 23.8808 36.8262C23.1484 34.1602 23.7734 30.9668 25.7265 28.9551C25.8437 28.8281 25.9706 28.6719 25.9706 28.4863C25.9511 28.3203 25.8925 28.1641 25.7851 28.0371C25.1015 27.041 22.7284 25.3516 23.207 22.0801C23.5488 19.7266 25.5995 18.0762 27.5234 18.1738L28.0116 18.2031C28.8417 18.252 29.5644 18.3594 30.248 18.3887C31.3906 18.4375 32.4257 18.2715 33.6367 17.2559C34.0468 16.9141 34.3788 16.6113 34.9355 16.5234C35.3945 16.4063 35.873 16.4941 36.2636 16.7383C37.2402 17.3926 37.3769 18.9648 37.4257 20.1172C37.455 20.7715 37.5331 22.3731 37.5624 22.8223C37.621 23.8672 37.8945 24.0137 38.4511 24.1895C38.7636 24.2969 39.0566 24.3652 39.4765 24.4922C40.7656 24.8535 41.5273 25.2246 42.0253 25.6934C42.2792 25.9375 42.4355 26.2598 42.4941 26.6016C42.6503 27.7148 41.6347 29.0918 38.9394 30.332C34.3691 32.4512 29.7695 31.7481 29.1054 31.6699C27.1327 31.4063 26.0097 33.9551 27.1913 35.6934C29.4081 38.9649 39.1738 37.6465 42.0058 33.6035C42.0742 33.5059 42.0156 33.4473 41.9374 33.5059C37.8456 36.2988 32.4355 37.2461 29.3593 36.0547C28.8906 35.8692 27.914 35.4199 27.7968 34.4238C32.0644 35.7422 34.7499 34.4922 34.7499 34.4922C34.7499 34.4922 34.9648 34.2383 34.7109 34.2676ZM19.8476 15.3613C21.4882 13.4668 23.4999 11.8164 25.3163 10.8984C25.3456 10.8789 25.3945 10.8887 25.414 10.9277C25.4238 10.9473 25.4238 10.9766 25.414 10.9961C25.2675 11.2598 24.9941 11.8164 24.9062 12.2363C24.8964 12.2754 24.9257 12.3145 24.9648 12.3242C24.9843 12.334 25.0038 12.3242 25.0234 12.3145C26.1464 11.5527 28.1093 10.7227 29.8183 10.625C29.8574 10.625 29.8964 10.6543 29.8964 10.6934C29.8964 10.7227 29.8866 10.7422 29.8671 10.7617C29.5839 10.9766 29.33 11.2305 29.1152 11.5234C29.0956 11.5527 29.0956 11.6016 29.1347 11.6211C29.1445 11.6309 29.164 11.6309 29.1738 11.6309C30.3749 11.6406 32.0741 12.0606 33.1874 12.6856C33.2656 12.7246 33.207 12.8711 33.1288 12.8516C26.3222 11.2891 21.0781 14.668 19.9648 15.4785C19.9257 15.4981 19.8867 15.4883 19.8574 15.459C19.8281 15.4199 19.8281 15.3809 19.8476 15.3613Z" fill="black"/>
</svg>

<svg xmlns="http://www.w3.org/2000/svg" width="64" height="64" fill="none" viewBox="0 0 50 50"><path fill="#000" d="M35.443 23.78c.303-.04.606-.04.909 0 .166-.372.195-1.026.048-1.72-.215-1.044-.517-1.68-1.123-1.581-.605.097-.635.859-.41 1.904.108.576.332 1.084.576 1.396Zm-5.244.83c.44.195.703.322.81.204.186-.185-.341-.918-1.18-1.279a3.085 3.085 0 0 0-2.999.361c-.293.215-.566.508-.527.694.088.361.976-.264 2.216-.342.674-.049 1.24.166 1.68.361Zm-.879.497c-.888.137-1.465.635-1.318.987.088.03.117.078.508-.078a3.667 3.667 0 0 1 1.836-.196c.283.03.42.05.488-.049.127-.205-.567-.771-1.514-.664Zm5.293 1.68c.332-.674-1.064-1.367-1.396-.683-.332.673 1.074 1.357 1.396.683Zm1.533-2.002c-.752-.01-.78 1.543-.029 1.563.762 0 .791-1.553.03-1.563ZM14.74 32.5c-.127.03-.586.147-.83-.234-.508-.782 1.084-1.993.293-3.506-.889-1.71-2.725-1.328-3.428-.547-.85.937-.85 2.305-.488 2.353.42.059.4-.634.723-1.142a1.251 1.251 0 0 1 1.738-.371s.01 0 .01.01c1.133.742.137 1.738.224 2.802.137 1.631 1.807 1.602 2.11.88a.208.208 0 0 0-.02-.225c0 .107.059-.108-.332-.02Zm29.336-1.67c-.332-1.152-.254-.898-.664-2.012.244-.361 1.494-2.353-.303-4.228-1.015-1.065-3.32-1.621-4.023-1.817-.147-1.113.459-5.742-2.11-8.125 2.032-2.109 3.301-4.433 3.301-6.425-.01-3.828-4.717-4.99-10.517-2.588l-1.23.517-2.257-2.207C19.672-1.816-1.012 21.162 5.6 26.748l1.445 1.22a7.075 7.075 0 0 0-.4 3.282c.331 3.272 3.525 5.918 6.61 5.908 5.655 13.028 26.221 13.047 31.544.293.166-.44.888-2.412.888-4.15 0-1.739-.986-2.47-1.61-2.47ZM13.14 35.547c-2.237-.059-4.649-2.07-4.883-4.453-.606-5.996 7.265-7.364 8.222-1.211.45 2.9-.459 5.723-3.34 5.664Zm-1.807-11.182c-1.484.293-2.793 1.133-3.594 2.295-.478-.4-1.367-1.172-1.523-1.465-1.27-2.431 1.396-7.148 3.261-9.804 4.61-6.582 11.827-11.563 15.176-10.664.547.156 2.344 2.236 2.344 2.236s-3.34 1.855-6.435 4.443c-4.19 3.223-7.344 7.89-9.229 12.96Zm23.379 9.903s-3.496.517-6.807-.694c.606-1.972 2.647.596 9.434-1.347 1.494-.43 3.457-1.27 4.99-2.48.332.76.566 1.562.693 2.372.362-.068 1.397-.049 1.123 1.768-.322 1.943-1.152 3.525-2.539 4.98a10.577 10.577 0 0 1-3.046 2.285 13.23 13.23 0 0 1-1.993.84c-5.234 1.71-10.595-.166-12.334-4.209a7.97 7.97 0 0 1-.351-.957c-.733-2.666-.108-5.86 1.846-7.87.117-.128.244-.284.244-.47a.837.837 0 0 0-.186-.449c-.683-.996-3.057-2.685-2.578-5.957.342-2.353 2.392-4.004 4.316-3.906l.489.03c.83.048 1.552.155 2.236.185 1.143.049 2.178-.117 3.389-1.133.41-.342.742-.645 1.298-.733a1.71 1.71 0 0 1 1.329.215c.976.655 1.113 2.227 1.162 3.38.029.654.107 2.255.136 2.704.059 1.045.333 1.192.89 1.367.312.108.605.176 1.025.303 1.289.361 2.05.733 2.548 1.201.254.244.41.567.47.909.155 1.113-.86 2.49-3.556 3.73-4.57 2.12-9.17 1.416-9.834 1.338-1.972-.264-3.095 2.285-1.914 4.023 2.217 3.272 11.983 1.954 14.815-2.09.068-.097.01-.156-.069-.097-4.091 2.793-9.502 3.74-12.578 2.549-.468-.186-1.445-.635-1.562-1.631 4.267 1.318 6.953.068 6.953.068s.215-.254-.04-.224ZM19.848 15.36c1.64-1.894 3.652-3.545 5.468-4.463.03-.02.079-.01.098.03.01.02.01.049 0 .068-.147.264-.42.82-.508 1.24-.01.04.02.079.059.088.02.01.039 0 .058-.01 1.123-.761 3.086-1.591 4.795-1.689.04 0 .078.03.078.068 0 .03-.01.05-.029.069a3.71 3.71 0 0 0-.752.761c-.02.03-.02.079.02.098.01.01.029.01.039.01 1.2.01 2.9.43 4.013 1.055.079.039.02.185-.058.166-6.807-1.563-12.05 1.816-13.164 2.627-.04.02-.078.01-.108-.02-.029-.04-.029-.078-.01-.098Z"/></svg>
